X: 26879
T: Minnesota, The
R: mazurka
M: 3/4
K: Gmajor
D2|:G2 B>G B>d|G2 B>G B>c|d2 e>d c>B|A2- A>B A>F|
D2 F>D F>A|D2 F>D F>A|d2 d>c B>A|1 B2- B>c B>A:|2 G2- G>c||
|:B>A|G2 B>G B>d|g4 g2|g2 f>g a>g|e4 e2|
[1 F2 A>F A>d|f2- f>g f>e|d2 d>e d>c|B2- B>c:|
[2 F2 (3AGF A>d|f2 f>g f>e|d2 d>c B>A|G4||

